(1)
(T1  D=5.7 CR=0. - ZMIN=-10.15 - FLAT END MILL)
N10 G90 G94 G17 G91.1
N15 G21
N20 G53 G0 Z0.
(FACE1)
N25 M9
N35 S10000 M3
N40 G54
N45 M8
N55 G0 X3.671 Y-70.941
N60 G43 Z15. H1
N65 G0 Z5.
N70 G1 Z-0.78 F1000.
N75 X3.664 Y-70.943 Z-0.869
N80 X3.644 Y-70.95 Z-0.956
N85 X3.612 Y-70.962 Z-1.039
N90 X3.568 Y-70.978 Z-1.115
N95 X3.514 Y-70.998 Z-1.183
N100 X3.45 Y-71.021 Z-1.241
N105 X3.378 Y-71.047 Z-1.288
N110 X3.301 Y-71.075 Z-1.322
N115 X3.219 Y-71.105 Z-1.343
N120 X3.135 Y-71.136 Z-1.35
N125 X0.975 Y-71.922
N130 X-14.84 Y-77.678
N135 X-28.665 Y-82.71
N140 G2 X-30.497 Y-77.678 I-0.916 J2.516
N145 G1 X0.975 Y-66.223
N150 X2.806 Y-65.557
N155 G3 X0.975 Y-60.525 I-0.916 J2.516
N160 G1 X-46.153 Y-77.678
N165 X-57.519 Y-81.815
N170 G2 X-60.951 Y-80.215 I-0.916 J2.516
N175 X-59.351 Y-76.783 I2.516 J0.916
N180 G1 X0.975 Y-54.826
N185 X2.806 Y-54.16
N190 G3 X0.975 Y-49.128 I-0.916 J2.516
N195 G1 X-60.975 Y-71.676
N200 G2 X-64.406 Y-70.076 I-0.916 J2.516
N205 X-62.806 Y-66.644 I2.516 J0.916
N210 G1 X-60.975 Y-65.977
N215 X0.975 Y-43.429
N220 X2.806 Y-42.763
N225 G3 X4.406 Y-39.331 I-0.916 J2.516
N230 X0.975 Y-37.731 I-2.516 J-0.916
N235 G1 X-60.975 Y-60.279
N240 G2 X-64.406 Y-58.679 I-0.916 J2.516
N245 X-62.806 Y-55.247 I2.516 J0.916
N250 G1 X-60.975 Y-54.58
N255 X0.975 Y-32.032
N260 X2.806 Y-31.366
N265 G3 X0.975 Y-26.334 I-0.916 J2.516
N270 G1 X-60.975 Y-48.882
N275 G2 X-64.406 Y-47.281 I-0.916 J2.516
N280 X-62.806 Y-43.85 I2.516 J0.916
N285 G1 X-60.975 Y-43.183
N290 X0.975 Y-20.635
N295 X2.806 Y-19.969
N300 G3 X0.975 Y-14.937 I-0.916 J2.516
N305 G1 X-60.975 Y-37.485
N310 G2 X-64.406 Y-35.884 I-0.916 J2.516
N315 X-62.806 Y-32.453 I2.516 J0.916
N320 G1 X-60.975 Y-31.786
N325 X0.975 Y-9.238
N330 X2.806 Y-8.572
N335 G3 X0.975 Y-3.54 I-0.916 J2.516
N340 G1 X-60.975 Y-26.088
N345 G2 X-64.406 Y-24.487 I-0.916 J2.516
N350 X-62.806 Y-21.056 I2.516 J0.916
N355 G1 X-60.975 Y-20.389
N360 X-0.58 Y1.593
N365 G3 X-2.411 Y6.625 I-0.916 J2.516
N370 G1 X-13.254 Y2.678
N375 X-60.975 Y-14.691
N380 G2 X-64.406 Y-13.09 I-0.916 J2.516
N385 X-62.806 Y-9.659 I2.516 J0.916
N390 G1 X-60.975 Y-8.992
N395 X-28.911 Y2.678
N400 G3 X-27.311 Y6.11 I-0.916 J2.516
N405 X-30.742 Y7.71 I-2.516 J-0.916
N410 G1 X-44.567 Y2.678
N415 X-60.975 Y-3.294
N420 X-61.059 Y-3.324 Z-1.343
N425 X-61.14 Y-3.354 Z-1.322
N430 X-61.218 Y-3.382 Z-1.288
N435 X-61.29 Y-3.408 Z-1.241
N440 X-61.354 Y-3.432 Z-1.183
N445 X-61.408 Y-3.451 Z-1.115
N450 X-61.452 Y-3.467 Z-1.039
N455 X-61.484 Y-3.479 Z-0.956
N460 X-61.504 Y-3.486 Z-0.869
N465 X-61.51 Y-3.489 Z-0.78
N470 G0 Z15.
(POCKET1)
N480 S5000 M3
N485 M8
N490 G0 X-37.992 Y-29.379
N495 Z15.
N500 Z2.
N505 G1 Z1.62 F333.33
N510 G3 X-38.011 Y-29.376 Z1.475 I-0.384 J-2.68
N515 X-38.065 Y-29.369 Z1.34 I-0.365 J-2.683
N520 X-38.151 Y-29.361 Z1.224 I-0.311 J-2.69
N525 X-38.265 Y-29.354 Z1.133 I-0.225 J-2.698
N530 X-38.398 Y-29.351 Z1.074 I-0.111 J-2.705
N535 X-38.541 Y-29.356 Z1.05 I0.021 J-2.707
N540 X-38.211 Y-34.761 Z0.753 I0.165 J-2.702
N545 X-38.541 Y-29.356 Z0.456 I-0.165 J2.702
N550 X-38.211 Y-34.761 Z0.159 I0.165 J-2.702
N555 X-38.541 Y-29.356 Z-0.138 I-0.165 J2.702
N560 X-38.211 Y-34.761 Z-0.435 I0.165 J-2.702
N565 X-35.67 Y-32.142 Z-0.575 I-0.165 J2.702
N570 G1 X-35.431 Y-24.395 F1000.
N575 G3 X-35.717 Y-24.101 I-0.285 J0.009
N580 X-35.911 Y-24.294 I0. J-0.194
N585 G1 X-35.91 Y-24.325
N590 G2 X-35.911 Y-24.336 I-0.284 J-0.002
N595 G1 X-36.707 Y-50.208
N600 G3 X-35.279 Y-51.673 I1.421 J-0.044
N605 X-34.641 Y-51.058 I-0.003 J0.642
N610 G1 X-34.213 Y-37.499
N615 G2 X-33.783 Y-26.79 I574.885 J-17.699
N620 G1 X-33.665 Y-24.397
N625 G3 X-35.642 Y-22.256 I-2.039 J0.101
N630 G1 X-36.122 Y-22.241
N635 G3 X-37.991 Y-24.004 I-0.055 J-1.814
N640 G1 X-38. Y-24.302
N645 G2 X-38.002 Y-24.359 I-2.691 J0.076
N650 G1 X-39.3 Y-50.608
N655 G3 X-39.304 Y-50.731 I4.449 J-0.22
N660 X-35.868 Y-54.297 I3.49 J-0.076
N665 G1 X-34.227 Y-54.322
N670 G3 X-31.832 Y-52.109 I0.036 J2.363
N675 G1 X-31.334 Y-42.853
N680 X-30.804 Y-32.142
N685 X-30.453 Y-22.038
N690 G3 X-33.377 Y-19.127 I-2.819 J0.092
N695 G1 X-33.401 Y-19.128
N700 G2 X-33.633 Y-19.13 I-0.138 J3.713
N705 G1 X-37.938 Y-19.021
N710 G2 X-38.033 Y-19.017 I0.106 J4.199
N715 G1 X-38.222 Y-19.008
N720 G3 X-41.453 Y-22.017 I-0.147 J-3.081
N725 G1 X-42.547 Y-53.936
N730 G3 X-38.912 Y-57.743 I3.686 J-0.119
N735 G1 X-36.492 Y-57.777
N740 G3 X-34.85 Y-57.719 I0.232 J16.794
N745 G1 X-32.899 Y-57.555
N750 G2 X-32.452 Y-57.541 I0.356 J-4.223
N755 G1 X-30.148 Y-57.59
N760 G3 X-28.959 Y-56.211 I0.025 J1.181
N765 G2 X-28.955 Y-55.652 I1.584 J0.27
N770 G1 X-28.542 Y-53.394
N775 G3 X-28.325 Y-51.588 I-14.485 J2.652
N780 G1 X-28.168 Y-48.861
N785 G3 X-28.108 Y-47.565 I-58.834 J3.385
N790 G1 X-27.561 Y-32.142
N795 X-27.381 Y-25.646
N800 G3 X-27.452 Y-23.019 I-24.104 J0.667
N805 G1 X-27.591 Y-21.312
N810 G2 X-27.581 Y-20.341 I5.314 J0.433
N815 G1 X-27.361 Y-18.168
N820 G3 X-29.517 Y-15.884 I-2.066 J0.209
N825 G1 X-31.755 Y-15.981
N830 G2 X-32.681 Y-15.941 I-0.233 J5.393
N835 G1 X-33.767 Y-15.801
N840 G3 X-37.583 Y-15.713 I-2.321 J-17.941
N845 G1 X-38.854 Y-15.819
N850 G2 X-39.871 Y-15.81 I-0.461 J5.561
N855 G1 X-42.27 Y-15.57
N860 G3 X-44.542 Y-17.74 I-0.206 J-2.059
N865 G1 X-44.419 Y-20.022
N870 G2 X-44.458 Y-21.031 I-5.427 J-0.292
N875 G1 X-44.715 Y-22.962
N880 G3 X-44.936 Y-25.711 I26.131 J-3.478
N885 G1 X-45.582 Y-49.063
N890 G3 X-45.489 Y-52.27 I28.31 J-0.783
N895 G1 X-45.316 Y-54.274
N900 G2 X-45.323 Y-55.431 I-6.309 J-0.542
N905 G1 X-45.612 Y-58.4
N910 G3 X-43.392 Y-60.734 I2.12 J-0.207
N915 G1 X-40.322 Y-60.589
N920 G2 X-39.218 Y-60.632 I0.304 J-6.432
N925 G1 X-37.93 Y-60.794
N930 G3 X-33.4 Y-60.879 I2.67 J21.318
N935 G1 X-31.671 Y-60.729
N940 G2 X-30.924 Y-60.71 I0.525 J-6.044
N945 G1 X-27.596 Y-60.832
N950 G3 X-25.866 Y-58.786 I0.062 J1.702
N955 G2 X-25.877 Y-57.887 I2.319 J0.478
N960 G1 X-25.273 Y-54.538
N965 G3 X-24.985 Y-52.107 I-19.874 J3.586
N970 G1 X-24.819 Y-49.217
N975 G3 X-24.734 Y-47.208 I-67.84 J3.888
N980 G1 X-24.169 Y-25.561
N985 G3 X-24.247 Y-23.105 I-22.642 J0.51
N990 G1 X-24.384 Y-21.522
N995 G2 X-24.085 Y-17.5 I12.598 J1.087
N1000 G1 X-23.76 Y-16.14
N1005 G3 X-27.506 Y-12.2 I-3.153 J0.753
N1010 G1 X-29.031 Y-12.484
N1015 G2 X-33.047 Y-12.606 I-2.405 J12.946
N1020 G1 X-33.811 Y-12.512
N1025 G3 X-37.537 Y-12.437 I-2.23 J-18.095
N1030 G1 X-38.443 Y-12.511
N1035 G2 X-42.571 Y-12.179 I-1.051 J12.759
N1040 G1 X-44.052 Y-11.812
N1045 G3 X-48.343 Y-15.908 I-0.844 J-3.41
N1050 G1 X-48.045 Y-17.405
N1055 G2 X-47.893 Y-21.552 I-12.795 J-2.545
N1060 G1 X-48.093 Y-23.166
N1065 G3 X-48.263 Y-25.504 I23.143 J-2.863
N1070 G1 X-48.803 Y-49.51
N1075 G3 X-48.745 Y-51.826 I24.341 J-0.548
N1080 G1 X-48.638 Y-53.304
N1085 G2 X-48.99 Y-57.707 I-14.498 J-1.055
N1090 G1 X-49.429 Y-59.561
N1095 G3 X-49.503 Y-61.245 I4.373 J-1.035
N1100 X-46.253 Y-64.553 I3.885 J0.566
N1105 G1 X-46.049 Y-64.587
N1110 G3 X-44.415 Y-64.574 I0.782 J4.765
N1115 G1 X-42.562 Y-64.242
N1120 G2 X-38.036 Y-64.088 I2.796 J-15.588
N1125 G1 X-37.444 Y-64.153
N1130 G3 X-33.889 Y-64.226 I2.189 J19.921
N1135 G1 X-33.007 Y-64.166
N1140 G2 X-28.626 Y-64.358 I1.337 J-19.563
N1145 G1 X-26.539 Y-64.686
N1150 G3 X-25.341 Y-64.708 I0.676 J4.304
N1155 X-22.264 Y-60.982 I-0.42 J3.481
N1160 G1 X-22.364 Y-59.551
N1165 G2 X-22.326 Y-58.301 I6.236 J0.436
N1170 G1 X-21.906 Y-55.103
N1175 G3 X-21.627 Y-52.023 I-38.098 J5.006
N1180 G1 X-21.504 Y-49.581
N1185 G3 X-21.405 Y-46.844 I-99.046 J4.969
N1190 G1 X-20.946 Y-25.484
N1195 G3 X-20.996 Y-23.179 I-28.403 J0.543
N1200 G1 X-21.077 Y-21.881
N1205 G2 X-20.747 Y-17.097 I18.344 J1.14
N1210 G1 X-20.417 Y-15.467
N1215 G3 X-20.309 Y-13.726 I-6.231 J1.261
N1220 G1 X-20.405 Y-12.457
N1225 G3 X-23.786 Y-8.961 I-3.795 J-0.287
N1230 G1 X-25.246 Y-8.802
N1235 G3 X-26.968 Y-8.838 I-0.722 J-6.601
N1240 G1 X-28.645 Y-9.094
N1245 G2 X-33.431 Y-9.232 I-2.957 J19.397
N1250 G1 X-33.902 Y-9.188
N1255 G3 X-37.443 Y-9.124 I-2.194 J-23.433
N1260 G1 X-38.092 Y-9.162
N1265 G2 X-42.937 Y-8.842 I-1.131 J19.725
N1270 G1 X-44.525 Y-8.538
N1275 G3 X-46.286 Y-8.427 I-1.318 J-6.885
N1280 G1 X-48.267 Y-8.553
N1285 G3 X-51.538 Y-11.727 I0.222 J-3.501
N1290 G1 X-51.728 Y-13.753
N1295 G3 X-51.683 Y-15.446 I7.053 J-0.66
N1300 G1 X-51.448 Y-17.04
N1305 G2 X-51.317 Y-21.909 I-20.259 J-2.983
N1310 G1 X-51.435 Y-23.189
N1315 G3 X-51.562 Y-25.477 I31.218 J-2.886
N1320 G1 X-52.022 Y-49.519
N1325 G3 X-51.988 Y-51.819 I34.204 J-0.653
N1330 G1 X-51.929 Y-53.054
N1335 G2 X-52.227 Y-57.979 I-22.728 J-1.095
N1340 G1 X-52.49 Y-59.516
N1345 G3 X-52.599 Y-61.287 I8.164 J-1.394
N1350 G1 X-52.455 Y-64.447
N1355 G3 X-49.452 Y-67.53 I3.235 J0.147
N1360 G1 X-46.062 Y-67.773
N1365 G3 X-44.403 Y-67.732 I0.616 J8.589
N1370 G1 X-42.823 Y-67.539
N1375 G2 X-37.786 Y-67.436 I3.031 J-24.866
N1380 G1 X-37.433 Y-67.464
N1385 G3 X-33.902 Y-67.529 I2.291 J28.522
N1390 G1 X-33.317 Y-67.503
N1395 G2 X-28.308 Y-67.674 I1.405 J-32.384
N1400 G1 X-26.566 Y-67.869
N1405 G3 X-25.314 Y-67.917 I0.95 J8.495
N1410 G1 X-21.427 Y-67.78
N1415 G3 X-18.713 Y-64.911 I-0.099 J2.811
N1420 G1 X-18.823 Y-59.513
N1425 G2 X-18.78 Y-58.338 I10.49 J0.212
N1430 G1 X-18.501 Y-55.306
N1435 G3 X-18.275 Y-51.825 I-64.507 J5.945
N1440 G1 X-18.19 Y-49.607
N1445 G3 X-18.11 Y-46.819 I-147.132 J5.6
N1450 G1 X-17.719 Y-25.48
N1455 G3 X-17.743 Y-23.182 I-42.759 J0.71
N1460 G1 X-17.786 Y-22.029
N1465 G2 X-17.532 Y-16.928 I29.398 J1.093
N1470 G1 X-17.324 Y-15.418
N1475 G3 X-17.231 Y-13.783 I-10.206 J1.403
N1480 G1 X-17.35 Y-8.492
N1485 G3 X-19.828 Y-5.937 I-2.617 J-0.059
N1490 G1 X-25.334 Y-5.646
N1495 G3 X-26.882 Y-5.677 I-0.56 J-10.585
N1500 G1 X-28.477 Y-5.827
N1505 G2 X-33.589 Y-5.901 I-3.028 J32.304
N1510 G1 X-33.91 Y-5.881
N1515 G3 X-37.432 Y-5.824 I-2.35 J-36.494
N1520 G1 X-37.966 Y-5.841
N1525 G2 X-43.083 Y-5.602 I-1.045 J32.57
N1530 G1 X-44.614 Y-5.409
N1535 G3 X-46.189 Y-5.324 I-1.381 J-10.961
N1540 G1 X-52.2 Y-5.43
N1545 G3 X-54.636 Y-7.799 I0.044 J-2.481
N1550 G1 X-54.912 Y-13.871
N1555 G3 X-54.883 Y-15.331 I11.127 J-0.507
N1560 G1 X-54.749 Y-16.894
N1565 G2 X-54.686 Y-22.043 I-34.879 J-2.996
N1570 G1 X-54.757 Y-23.193
N1575 G3 X-54.846 Y-25.471 I50.612 J-3.119
N1580 G1 X-55.246 Y-49.521
N1585 G3 X-55.238 Y-51.818 I57.665 J-0.957
N1590 G1 X-55.211 Y-52.961
N1595 G2 X-55.423 Y-58.091 I-39.87 J-0.926
N1600 G1 X-55.591 Y-59.681
N1605 G3 X-55.66 Y-61.115 I12.31 J-1.305
N1610 G1 X-55.585 Y-68.282
N1615 G3 X-53.284 Y-70.642 I2.387 J0.025
N1620 G1 X-45.862 Y-70.909
N1625 G3 X-44.601 Y-70.892 I0.458 J12.716
N1630 G1 X-42.944 Y-70.788
N1635 G2 X-37.674 Y-70.756 I2.914 J-46.075
N1640 G1 X-37.421 Y-70.769
N1645 G3 X-33.917 Y-70.826 I2.584 J50.583
N1650 G1 X-33.439 Y-70.818
N1655 G2 X-28.178 Y-70.949 I1.11 J-61.144
N1660 G1 X-26.417 Y-71.068
N1665 G3 X-25.466 Y-71.098 I0.882 J12.961
N1670 G1 X-17.59 Y-71.056
N1675 G3 X-15.294 Y-68.75 I-0.012 J2.307
N1680 G1 X-15.291 Y-59.334
N1685 G2 X-15.268 Y-58.515 I14.96 J-0.006
N1690 G1 X-15.097 Y-55.408
N1695 G3 X-14.946 Y-51.727 I-128.452 J7.088
N1700 G1 X-14.675 Y-37.498
N1705 X-14.489 Y-25.481
N1710 G3 X-14.485 Y-23.181 I-87.785 J1.287
N1715 G1 X-14.498 Y-22.096
N1720 G2 X-14.336 Y-16.846 I62.109 J0.717
N1725 G1 X-14.211 Y-15.129
N1730 G3 X-14.172 Y-14.077 I-14.519 J1.063
N1735 G1 X-14.165 Y-4.781
N1740 G3 X-16.119 Y-2.773 I-2.007 J0.001
N1745 G1 X-25.657 Y-2.522
N1750 G3 X-26.561 Y-2.526 I-0.391 J-14.872
N1755 G1 X-28.392 Y-2.589
N1760 G2 X-33.668 Y-2.586 I-2.59 J75.136
N1765 G1 X-33.933 Y-2.576
N1770 G3 X-37.407 Y-2.525 I-2.957 J-82.726
N1775 G1 X-37.911 Y-2.528
N1780 G2 X-43.152 Y-2.384 I-0.486 J77.846
N1785 G1 X-44.954 Y-2.274
N1790 G3 X-45.843 Y-2.246 I-0.94 J-15.369
N1795 G1 X-56.277 Y-2.211
N1800 G3 X-57.828 Y-3.723 I-0.005 J-1.546
N1805 G1 X-58.061 Y-14.243
N1810 G3 X-58.06 Y-14.961 I15.51 J-0.343
N1815 G1 X-58.016 Y-16.811
N1820 G2 X-58.035 Y-22.121 I-95.48 J-2.304
N1825 G1 X-58.141 Y-26.791
N1830 X-58.496 Y-52.947
N1835 G2 X-58.61 Y-58.116 I-131.494 J0.312
N1840 G1 X-58.693 Y-60.105
N1845 G3 X-58.708 Y-60.687 I16.781 J-0.7
N1850 G1 X-58.792 Y-72.774
N1855 G3 X-57.775 Y-73.816 I1.034 J-0.007
N1860 G1 X-45.408 Y-74.022
N1865 G3 X-45.053 Y-74.024 I0.286 J17.155
N1870 G1 X-43.075 Y-74.016
N1875 G2 X-37.546 Y-74.067 I0.84 J-208.618
N1880 G1 X-30.806 Y-74.146
N1885 X-25.942 Y-74.267
N1890 X-12.657 Y-74.393
N1895 G3 X-11.931 Y-73.682 I0.007 J0.719
N1900 G1 X-11.763 Y-58.924
N1905 X-11.343 Y-32.142
N1910 Y-0.014
N1915 X-11.344 Y-0.004
N1920 X-59.99
N1925 X-59.996 Y-0.005
N1930 X-59.997 Y-0.009
N1935 Y-74.986
N1940 X-59.995 Y-74.996
N1945 X-11.349
N1950 X-11.344 Y-74.995
N1955 X-11.343 Y-74.991
N1960 Y-32.142
N1965 G3 X-14.837 Y-29.551 Z-0.678 I-2.708 J0. F333.33
N1970 G1 X-32.177 Y-34.816 Z-1.046
N1975 G2 X-35.67 Y-32.142 Z-1.15 I-0.787 J2.591
N1980 G1 X-35.431 Y-24.395 F1000.
N1985 G3 X-35.717 Y-24.101 I-0.285 J0.009
N1990 X-35.911 Y-24.294 I0. J-0.194
N1995 G1 X-35.91 Y-24.325
N2000 G2 X-35.911 Y-24.336 I-0.284 J-0.002
N2005 G1 X-36.707 Y-50.208
N2010 G3 X-35.279 Y-51.673 I1.421 J-0.044
N2015 X-34.641 Y-51.058 I-0.003 J0.642
N2020 G1 X-34.213 Y-37.499
N2025 G2 X-33.783 Y-26.79 I574.885 J-17.699
N2030 G1 X-33.665 Y-24.397
N2035 G3 X-35.642 Y-22.256 I-2.039 J0.101
N2040 G1 X-36.122 Y-22.241
N2045 G3 X-37.991 Y-24.004 I-0.055 J-1.814
N2050 G1 X-38. Y-24.302
N2055 G2 X-38.002 Y-24.359 I-2.691 J0.076
N2060 G1 X-39.3 Y-50.608
N2065 G3 X-39.304 Y-50.731 I4.449 J-0.22
N2070 X-35.868 Y-54.297 I3.49 J-0.076
N2075 G1 X-34.227 Y-54.322
N2080 G3 X-31.832 Y-52.109 I0.036 J2.363
N2085 G1 X-31.334 Y-42.853
N2090 X-30.804 Y-32.142
N2095 X-30.453 Y-22.038
N2100 G3 X-33.377 Y-19.127 I-2.819 J0.092
N2105 G1 X-33.401 Y-19.128
N2110 G2 X-33.633 Y-19.13 I-0.138 J3.713
N2115 G1 X-37.938 Y-19.021
N2120 G2 X-38.033 Y-19.017 I0.106 J4.199
N2125 G1 X-38.222 Y-19.008
N2130 G3 X-41.453 Y-22.017 I-0.147 J-3.081
N2135 G1 X-42.547 Y-53.936
N2140 G3 X-38.912 Y-57.743 I3.686 J-0.119
N2145 G1 X-36.492 Y-57.777
N2150 G3 X-34.85 Y-57.719 I0.232 J16.794
N2155 G1 X-32.899 Y-57.555
N2160 G2 X-32.452 Y-57.541 I0.356 J-4.223
N2165 G1 X-30.148 Y-57.59
N2170 G3 X-28.959 Y-56.211 I0.025 J1.181
N2175 G2 X-28.955 Y-55.652 I1.584 J0.27
N2180 G1 X-28.542 Y-53.394
N2185 G3 X-28.325 Y-51.588 I-14.485 J2.652
N2190 G1 X-28.168 Y-48.861
N2195 G3 X-28.108 Y-47.565 I-58.834 J3.385
N2200 G1 X-27.561 Y-32.142
N2205 X-27.381 Y-25.646
N2210 G3 X-27.452 Y-23.019 I-24.104 J0.667
N2215 G1 X-27.591 Y-21.312
N2220 G2 X-27.581 Y-20.341 I5.314 J0.433
N2225 G1 X-27.361 Y-18.168
N2230 G3 X-29.517 Y-15.884 I-2.066 J0.209
N2235 G1 X-31.755 Y-15.981
N2240 G2 X-32.681 Y-15.941 I-0.233 J5.393
N2245 G1 X-33.767 Y-15.801
N2250 G3 X-37.583 Y-15.713 I-2.321 J-17.941
N2255 G1 X-38.854 Y-15.819
N2260 G2 X-39.871 Y-15.81 I-0.461 J5.561
N2265 G1 X-42.27 Y-15.57
N2270 G3 X-44.542 Y-17.74 I-0.206 J-2.059
N2275 G1 X-44.419 Y-20.022
N2280 G2 X-44.458 Y-21.031 I-5.427 J-0.292
N2285 G1 X-44.715 Y-22.962
N2290 G3 X-44.936 Y-25.711 I26.131 J-3.478
N2295 G1 X-45.582 Y-49.063
N2300 G3 X-45.489 Y-52.27 I28.31 J-0.783
N2305 G1 X-45.316 Y-54.274
N2310 G2 X-45.323 Y-55.431 I-6.309 J-0.542
N2315 G1 X-45.612 Y-58.4
N2320 G3 X-43.392 Y-60.734 I2.12 J-0.207
N2325 G1 X-40.322 Y-60.589
N2330 G2 X-39.218 Y-60.632 I0.304 J-6.432
N2335 G1 X-37.93 Y-60.794
N2340 G3 X-33.4 Y-60.879 I2.67 J21.318
N2345 G1 X-31.671 Y-60.729
N2350 G2 X-30.924 Y-60.71 I0.525 J-6.044
N2355 G1 X-27.596 Y-60.832
N2360 G3 X-25.866 Y-58.786 I0.062 J1.702
N2365 G2 X-25.877 Y-57.887 I2.319 J0.478
N2370 G1 X-25.273 Y-54.538
N2375 G3 X-24.985 Y-52.107 I-19.874 J3.586
N2380 G1 X-24.819 Y-49.217
N2385 G3 X-24.734 Y-47.208 I-67.84 J3.888
N2390 G1 X-24.169 Y-25.561
N2395 G3 X-24.247 Y-23.105 I-22.642 J0.51
N2400 G1 X-24.384 Y-21.522
N2405 G2 X-24.085 Y-17.5 I12.598 J1.087
N2410 G1 X-23.76 Y-16.14
N2415 G3 X-27.506 Y-12.2 I-3.153 J0.753
N2420 G1 X-29.031 Y-12.484
N2425 G2 X-33.047 Y-12.606 I-2.405 J12.946
N2430 G1 X-33.811 Y-12.512
N2435 G3 X-37.537 Y-12.437 I-2.23 J-18.095
N2440 G1 X-38.443 Y-12.511
N2445 G2 X-42.571 Y-12.179 I-1.051 J12.759
N2450 G1 X-44.052 Y-11.812
N2455 G3 X-48.343 Y-15.908 I-0.844 J-3.41
N2460 G1 X-48.045 Y-17.405
N2465 G2 X-47.893 Y-21.552 I-12.795 J-2.545
N2470 G1 X-48.093 Y-23.166
N2475 G3 X-48.263 Y-25.504 I23.143 J-2.863
N2480 G1 X-48.803 Y-49.51
N2485 G3 X-48.745 Y-51.826 I24.341 J-0.548
N2490 G1 X-48.638 Y-53.304
N2495 G2 X-48.99 Y-57.707 I-14.498 J-1.055
N2500 G1 X-49.429 Y-59.561
N2505 G3 X-49.503 Y-61.245 I4.373 J-1.035
N2510 X-46.253 Y-64.553 I3.885 J0.566
N2515 G1 X-46.049 Y-64.587
N2520 G3 X-44.415 Y-64.574 I0.782 J4.765
N2525 G1 X-42.562 Y-64.242
N2530 G2 X-38.036 Y-64.088 I2.796 J-15.588
N2535 G1 X-37.444 Y-64.153
N2540 G3 X-33.889 Y-64.226 I2.189 J19.921
N2545 G1 X-33.007 Y-64.166
N2550 G2 X-28.626 Y-64.358 I1.337 J-19.563
N2555 G1 X-26.539 Y-64.686
N2560 G3 X-25.341 Y-64.708 I0.676 J4.304
N2565 X-22.264 Y-60.982 I-0.42 J3.481
N2570 G1 X-22.364 Y-59.551
N2575 G2 X-22.326 Y-58.301 I6.236 J0.436
N2580 G1 X-21.906 Y-55.103
N2585 G3 X-21.627 Y-52.023 I-38.098 J5.006
N2590 G1 X-21.504 Y-49.581
N2595 G3 X-21.405 Y-46.844 I-99.046 J4.969
N2600 G1 X-20.946 Y-25.484
N2605 G3 X-20.996 Y-23.179 I-28.403 J0.543
N2610 G1 X-21.077 Y-21.881
N2615 G2 X-20.747 Y-17.097 I18.344 J1.14
N2620 G1 X-20.417 Y-15.467
N2625 G3 X-20.309 Y-13.726 I-6.231 J1.261
N2630 G1 X-20.405 Y-12.457
N2635 G3 X-23.786 Y-8.961 I-3.795 J-0.287
N2640 G1 X-25.246 Y-8.802
N2645 G3 X-26.968 Y-8.838 I-0.722 J-6.601
N2650 G1 X-28.645 Y-9.094
N2655 G2 X-33.431 Y-9.232 I-2.957 J19.397
N2660 G1 X-33.902 Y-9.188
N2665 G3 X-37.443 Y-9.124 I-2.194 J-23.433
N2670 G1 X-38.092 Y-9.162
N2675 G2 X-42.937 Y-8.842 I-1.131 J19.725
N2680 G1 X-44.525 Y-8.538
N2685 G3 X-46.286 Y-8.427 I-1.318 J-6.885
N2690 G1 X-48.267 Y-8.553
N2695 G3 X-51.538 Y-11.727 I0.222 J-3.501
N2700 G1 X-51.728 Y-13.753
N2705 G3 X-51.683 Y-15.446 I7.053 J-0.66
N2710 G1 X-51.448 Y-17.04
N2715 G2 X-51.317 Y-21.909 I-20.259 J-2.983
N2720 G1 X-51.435 Y-23.189
N2725 G3 X-51.562 Y-25.477 I31.218 J-2.886
N2730 G1 X-52.022 Y-49.519
N2735 G3 X-51.988 Y-51.819 I34.204 J-0.653
N2740 G1 X-51.929 Y-53.054
N2745 G2 X-52.227 Y-57.979 I-22.728 J-1.095
N2750 G1 X-52.49 Y-59.516
N2755 G3 X-52.599 Y-61.287 I8.164 J-1.394
N2760 G1 X-52.455 Y-64.447
N2765 G3 X-49.452 Y-67.53 I3.235 J0.147
N2770 G1 X-46.062 Y-67.773
N2775 G3 X-44.403 Y-67.732 I0.616 J8.589
N2780 G1 X-42.823 Y-67.539
N2785 G2 X-37.786 Y-67.436 I3.031 J-24.866
N2790 G1 X-37.433 Y-67.464
N2795 G3 X-33.902 Y-67.529 I2.291 J28.522
N2800 G1 X-33.317 Y-67.503
N2805 G2 X-28.308 Y-67.674 I1.405 J-32.384
N2810 G1 X-26.566 Y-67.869
N2815 G3 X-25.314 Y-67.917 I0.95 J8.495
N2820 G1 X-21.427 Y-67.78
N2825 G3 X-18.713 Y-64.911 I-0.099 J2.811
N2830 G1 X-18.823 Y-59.513
N2835 G2 X-18.78 Y-58.338 I10.49 J0.212
N2840 G1 X-18.501 Y-55.306
N2845 G3 X-18.275 Y-51.825 I-64.507 J5.945
N2850 G1 X-18.19 Y-49.607
N2855 G3 X-18.11 Y-46.819 I-147.132 J5.6
N2860 G1 X-17.719 Y-25.48
N2865 G3 X-17.743 Y-23.182 I-42.759 J0.71
N2870 G1 X-17.786 Y-22.029
N2875 G2 X-17.532 Y-16.928 I29.398 J1.093
N2880 G1 X-17.324 Y-15.418
N2885 G3 X-17.231 Y-13.783 I-10.206 J1.403
N2890 G1 X-17.35 Y-8.492
N2895 G3 X-19.828 Y-5.937 I-2.617 J-0.059
N2900 G1 X-25.334 Y-5.646
N2905 G3 X-26.882 Y-5.677 I-0.56 J-10.585
N2910 G1 X-28.477 Y-5.827
N2915 G2 X-33.589 Y-5.901 I-3.028 J32.304
N2920 G1 X-33.91 Y-5.881
N2925 G3 X-37.432 Y-5.824 I-2.35 J-36.494
N2930 G1 X-37.966 Y-5.841
N2935 G2 X-43.083 Y-5.602 I-1.045 J32.57
N2940 G1 X-44.614 Y-5.409
N2945 G3 X-46.189 Y-5.324 I-1.381 J-10.961
N2950 G1 X-52.2 Y-5.43
N2955 G3 X-54.636 Y-7.799 I0.044 J-2.481
N2960 G1 X-54.912 Y-13.871
N2965 G3 X-54.883 Y-15.331 I11.127 J-0.507
N2970 G1 X-54.749 Y-16.894
N2975 G2 X-54.686 Y-22.043 I-34.879 J-2.996
N2980 G1 X-54.757 Y-23.193
N2985 G3 X-54.846 Y-25.471 I50.612 J-3.119
N2990 G1 X-55.246 Y-49.521
N2995 G3 X-55.238 Y-51.818 I57.665 J-0.957
N3000 G1 X-55.211 Y-52.961
N3005 G2 X-55.423 Y-58.091 I-39.87 J-0.926
N3010 G1 X-55.591 Y-59.681
N3015 G3 X-55.66 Y-61.115 I12.31 J-1.305
N3020 G1 X-55.585 Y-68.282
N3025 G3 X-53.284 Y-70.642 I2.387 J0.025
N3030 G1 X-45.862 Y-70.909
N3035 G3 X-44.601 Y-70.892 I0.458 J12.716
N3040 G1 X-42.944 Y-70.788
N3045 G2 X-37.674 Y-70.756 I2.914 J-46.075
N3050 G1 X-37.421 Y-70.769
N3055 G3 X-33.917 Y-70.826 I2.584 J50.583
N3060 G1 X-33.439 Y-70.818
N3065 G2 X-28.178 Y-70.949 I1.11 J-61.144
N3070 G1 X-26.417 Y-71.068
N3075 G3 X-25.466 Y-71.098 I0.882 J12.961
N3080 G1 X-17.59 Y-71.056
N3085 G3 X-15.294 Y-68.75 I-0.012 J2.307
N3090 G1 X-15.291 Y-59.334
N3095 G2 X-15.268 Y-58.515 I14.96 J-0.006
N3100 G1 X-15.097 Y-55.408
N3105 G3 X-14.946 Y-51.727 I-128.452 J7.088
N3110 G1 X-14.675 Y-37.498
N3115 X-14.489 Y-25.481
N3120 G3 X-14.485 Y-23.181 I-87.785 J1.287
N3125 G1 X-14.498 Y-22.096
N3130 G2 X-14.336 Y-16.846 I62.109 J0.717
N3135 G1 X-14.211 Y-15.129
N3140 G3 X-14.172 Y-14.077 I-14.519 J1.063
N3145 G1 X-14.165 Y-4.781
N3150 G3 X-16.119 Y-2.773 I-2.007 J0.001
N3155 G1 X-25.657 Y-2.522
N3160 G3 X-26.561 Y-2.526 I-0.391 J-14.872
N3165 G1 X-28.392 Y-2.589
N3170 G2 X-33.668 Y-2.586 I-2.59 J75.136
N3175 G1 X-33.933 Y-2.576
N3180 G3 X-37.407 Y-2.525 I-2.957 J-82.726
N3185 G1 X-37.911 Y-2.528
N3190 G2 X-43.152 Y-2.384 I-0.486 J77.846
N3195 G1 X-44.954 Y-2.274
N3200 G3 X-45.843 Y-2.246 I-0.94 J-15.369
N3205 G1 X-56.277 Y-2.211
N3210 G3 X-57.828 Y-3.723 I-0.005 J-1.546
N3215 G1 X-58.061 Y-14.243
N3220 G3 X-58.06 Y-14.961 I15.51 J-0.343
N3225 G1 X-58.016 Y-16.811
N3230 G2 X-58.035 Y-22.121 I-95.48 J-2.304
N3235 G1 X-58.141 Y-26.791
N3240 X-58.496 Y-52.947
N3245 G2 X-58.61 Y-58.116 I-131.494 J0.312
N3250 G1 X-58.693 Y-60.105
N3255 G3 X-58.708 Y-60.687 I16.781 J-0.7
N3260 G1 X-58.792 Y-72.774
N3265 G3 X-57.775 Y-73.816 I1.034 J-0.007
N3270 G1 X-45.408 Y-74.022
N3275 G3 X-45.053 Y-74.024 I0.286 J17.155
N3280 G1 X-43.075 Y-74.016
N3285 G2 X-37.546 Y-74.067 I0.84 J-208.618
N3290 G1 X-30.806 Y-74.146
N3295 X-25.942 Y-74.267
N3300 X-12.657 Y-74.393
N3305 G3 X-11.931 Y-73.682 I0.007 J0.719
N3310 G1 X-11.763 Y-58.924
N3315 X-11.343 Y-32.142
N3320 Y-0.014
N3325 X-11.344 Y-0.004
N3330 X-59.99
N3335 X-59.996 Y-0.005
N3340 X-59.997 Y-0.009
N3345 Y-74.986
N3350 X-59.995 Y-74.996
N3355 X-11.349
N3360 X-11.344 Y-74.995
N3365 X-11.343 Y-74.991
N3370 Y-32.142
N3375 G3 X-11.393 Y-32.051 I-0.108 J0.
N3380 G1 X-11.618 Y-31.909
N3385 G2 X-11.668 Y-31.817 I0.058 J0.092
N3390 G1 Y-25.869
N3395 G2 X-11.618 Y-25.777 I0.108 J0.
N3400 G1 X-11.393 Y-25.635
N3405 G3 X-11.343 Y-25.544 I-0.058 J0.092
N3410 G1 Y-0.014 Z-2.042 F333.33
N3415 X-11.344 Y-0.004
N3420 X-14.441 Y-0.002 Z-2.15
N3425 X-16.46 Y-0.001 F1000.
N3430 Y-74.999
N3435 X-11.35 Y-74.996
N3440 X-11.344 Y-74.995
N3445 X-11.343 Y-74.991
N3450 Y-0.014
N3455 X-11.344 Y-0.004
N3460 X-14.441 Y-0.002
N3465 G3 X-14.724 Y-0.319 I0. J-0.285
N3470 G1 X-11.911 Y-25.864
N3475 G3 X-11.343 Y-25.833 I0.283 J0.031
N3480 G1 Y-0.014 Z-3.052 F333.33
N3485 X-11.344 Y-0.004
N3490 X-14.152 Y-0.002 Z-3.15
N3495 X-15.882 Y-0.001 F1000.
N3500 Y-74.999
N3505 X-11.35 Y-74.996
N3510 X-11.344 Y-74.995
N3515 X-11.343 Y-74.991
N3520 Y-0.014
N3525 X-11.344 Y-0.004
N3530 X-14.152 Y-0.002
N3535 G3 X-14.436 Y-0.315 I0. J-0.285
N3540 G1 X-11.911 Y-26.149
N3545 G3 X-11.343 Y-26.121 I0.284 J0.028
N3550 G1 Y-0.014 Z-4.062 F333.33
N3555 X-11.344 Y-0.004
N3560 X-13.864 Y-0.002 Z-4.15
N3565 X-15.305 Y-0.001 F1000.
N3570 Y-74.999
N3575 X-11.35 Y-74.996
N3580 X-11.344 Y-74.995
N3585 X-11.343 Y-74.991
N3590 Y-0.014
N3595 X-11.344 Y-0.004
N3600 X-13.864 Y-0.002
N3605 G3 X-14.148 Y-0.312 I0. J-0.285
N3610 G1 X-11.912 Y-26.434
N3615 G3 X-11.343 Y-26.41 I0.284 J0.024
N3620 G1 Y-0.014 Z-5.072 F333.33
N3625 X-11.344 Y-0.004
N3630 X-13.575 Y-0.002 Z-5.15
N3635 X-14.728 Y-0.001 F1000.
N3640 Y-74.999
N3645 X-11.35 Y-74.996
N3650 X-11.344 Y-74.995
N3655 X-11.343 Y-74.991
N3660 Y-0.014
N3665 X-11.344 Y-0.004
N3670 X-13.575 Y-0.002
N3675 G3 X-13.86 Y-0.308 I0. J-0.285
N3680 G1 X-11.912 Y-26.719
N3685 G3 X-11.343 Y-26.698 I0.284 J0.021
N3690 G1 Y-0.014 Z-6.082 F333.33
N3695 X-11.344 Y-0.004
N3700 X-13.287 Y-0.002 Z-6.15
N3705 X-14.15 Y-0.001 F1000.
N3710 Y-74.999
N3715 X-11.35 Y-74.996
N3720 X-11.344 Y-74.995
N3725 X-11.343 Y-74.991
N3730 Y-0.014
N3735 X-11.344 Y-0.004
N3740 X-13.287 Y-0.002
N3745 G3 X-13.571 Y-0.305 I0. J-0.285
N3750 G1 X-11.912 Y-27.005
N3755 G3 X-11.343 Y-26.987 I0.284 J0.018
N3760 G1 Y-0.014 Z-7.092 F333.33
N3765 X-11.344 Y-0.004
N3770 X-12.998 Y-0.002 Z-7.15
N3775 X-13.573 F1000.
N3780 Y-74.999
N3785 X-11.35 Y-74.996
N3790 X-11.344 Y-74.995
N3795 X-11.343 Y-74.991
N3800 Y-0.014
N3805 X-11.344 Y-0.004
N3810 X-12.998 Y-0.002
N3815 G3 X-13.283 Y-0.302 I0. J-0.285
N3820 G1 X-11.912 Y-27.29
N3825 G3 X-11.343 Y-27.275 I0.285 J0.014
N3830 G1 Y-0.014 Z-8.102 F333.33
N3835 X-11.344 Y-0.004
N3840 X-12.709 Y-0.002 Z-8.15
N3845 X-12.995 F1000.
N3850 Y-74.998
N3855 X-11.35 Y-74.996
N3860 X-11.344 Y-74.995
N3865 X-11.343 Y-74.991
N3870 Y-0.014
N3875 X-11.344 Y-0.004
N3880 X-12.709 Y-0.002
N3885 X-12.784 Z-8.145
N3890 X-12.858 Z-8.13
N3895 X-12.928 Z-8.106
N3900 X-12.995 Z-8.073
N3905 G19 G2 Y-0.286 Z-7.58 J0.286 K0.493
N3910 G0 Z5.
N3915 X-11.343 Y-7.101
N3920 G1 Z-6.53 F333.33
N3925 G3 Y-6.534 Z-7.1 J0.57 K0.
N3930 G1 Y-0.014 Z-7.143
N3935 X-11.344 Y-0.004
N3940 X-12.418 Y-0.002 Z-7.15
N3945 Y-0.005
N3950 Y-74.998 Z-7.643
N3955 X-11.35 Y-74.996 Z-7.65
N3960 X-11.344 Y-74.995
N3965 X-11.343 Y-74.991
N3970 Y-0.014 Z-8.143
N3975 X-11.344 Y-0.004
N3980 X-12.418 Y-0.002 Z-8.15
N3985 Y-0.005
N3990 Y-74.998 Z-8.643
N3995 X-11.35 Y-74.996 Z-8.65
N4000 X-11.344 Y-74.995
N4005 X-11.343 Y-74.991
N4010 Y-0.014 Z-9.143
N4015 X-11.344 Y-0.004
N4020 X-12.418 Y-0.002 Z-9.15
N4025 Y-0.005
N4030 Y-74.998 F1000.
N4035 X-11.35 Y-74.996
N4040 X-11.344 Y-74.995
N4045 X-11.343 Y-74.991
N4050 Y-0.014
N4055 X-11.344 Y-0.004
N4060 X-12.418 Y-0.002
N4065 Y-0.005
N4070 Z-8.58
N4075 G0 Z5.
N4080 X-11.343 Y-7.331
N4085 G1 Z-7.53 F333.33
N4090 G3 Y-6.765 Z-8.1 J0.57 K0.
N4095 G1 Y-0.014 Z-8.145
N4100 X-11.344 Y-0.004
N4105 X-11.841 Y-0.003 Z-8.148
N4110 Y-74.997 Z-8.645
N4115 X-11.35 Y-74.996 Z-8.648
N4120 X-11.344 Y-74.995
N4125 X-11.343 Y-74.991
N4130 Y-0.014 Z-9.145
N4135 X-11.344 Y-0.004
N4140 X-11.841 Y-0.003 Z-9.148
N4145 Y-74.997 Z-9.645
N4150 X-11.35 Y-74.996 Z-9.648
N4155 X-11.344 Y-74.995
N4160 X-11.343 Y-74.991
N4165 Y-0.014 Z-10.145
N4170 X-11.344 Y-0.004
N4175 X-11.841 Y-0.003 Z-10.148
N4180 Y-0.294 Z-10.15
N4185 Y-74.997 F1000.
N4190 X-11.35 Y-74.996
N4195 X-11.344 Y-74.995
N4200 X-11.343 Y-74.991
N4205 Y-0.014
N4210 X-11.344 Y-0.004
N4215 X-11.841 Y-0.003
N4220 Y-0.294
N4225 G2 Y-0.864 Z-9.58 J0. K0.57
N4230 G0 Z15.
N4235 G17
N4240 M9
N4245 G53 G0 Z0.
N4250 M30

